X: 21480
T: Kevin's Dream
R: reel
M: 4/4
K: Eminor
gf|eBBA GBEF|GFGB AFD2|(3ABAFG ADFA|BAFE Degf|
eBBA GBEF|GFGB A,2A,G,|A,B,DB,|DFED GFED|E3A||
|:cBAg feBA|GFEG DFA2|cBAg feBA|1 GFED B,2B,A:|2 GFED E2gf||

